packages/katcn/src/icons/svg/userEdit-solid.svg

<svg width="24" height="25" viewBox="0 0 24 25" fill="none" xmlns="http://www.w3.org/2000/svg">
<path d="M8.79996 21.2761C8.99996 19.3761 9.79996 17.6761 11.2 16.2761L15 12.4761C15.8 11.6761 16.4 10.6761 16.6 9.5761C16.7 8.6761 16.6 7.6761 16.4 6.9761C15.7 4.7761 13.7 3.0761 11.3 2.9761C8.09996 2.8761 5.49996 5.3761 5.49996 8.5761C5.49996 10.4761 6.39996 12.0761 7.79996 13.0761C5.29996 13.9761 3.29996 15.8761 2.19996 18.3761C1.79996 19.3761 1.89996 20.4761 2.49996 21.3761C3.19996 22.3761 4.19996 22.9761 5.39996 22.9761H8.89996C8.79996 22.6761 8.69996 22.4761 8.69996 22.1761C8.69996 21.8761 8.79996 21.5761 8.79996 21.2761Z" fill="black"/>
<path d="M21.2999 12.0761C20.7999 11.5761 20.1999 11.3761 19.4999 11.3761C18.8999 11.3761 18.1999 11.5761 17.6999 12.0761L15.9999 13.8761L15.3999 14.4761L14.7999 15.0761L12.3999 17.4761C11.3999 18.4761 10.6999 19.8761 10.5999 21.2761C10.5999 21.5761 10.4999 21.7761 10.4999 22.0761C10.4999 22.5761 10.8999 22.8761 11.2999 22.8761C12.3999 22.8761 13.4999 22.5761 14.4999 22.0761C14.9999 21.7761 15.4999 21.4761 15.8999 20.9761L18.8999 17.9761L19.4999 17.3761L21.2999 15.5761C21.7999 15.0761 21.9999 14.4761 21.9999 13.7761C21.9999 13.1761 21.6999 12.5761 21.2999 12.0761Z" fill="black"/>
</svg>

<svg xmlns="http://www.w3.org/2000/svg" fill="none" viewBox="0 0 24 25"><path fill="#000" d="M8.8 21.276c.2-1.9 1-3.6 2.4-5l3.8-3.8c.8-.8 1.4-1.8 1.6-2.9.1-.9 0-1.9-.2-2.6-.7-2.2-2.7-3.9-5.1-4-3.2-.1-5.8 2.4-5.8 5.6 0 1.9.9 3.5 2.3 4.5-2.5.9-4.5 2.8-5.6 5.3-.4 1-.3 2.1.3 3 .7 1 1.7 1.6 2.9 1.6h3.5c-.1-.3-.2-.5-.2-.8s.1-.6.1-.9"/><path fill="#000" d="M21.3 12.076c-.5-.5-1.1-.7-1.8-.7-.6 0-1.3.2-1.8.7l-1.7 1.8-.6.6-.6.6-2.4 2.4c-1 1-1.7 2.4-1.8 3.8 0 .3-.1.5-.1.8 0 .5.4.8.8.8 1.1 0 2.2-.3 3.2-.8.5-.3 1-.6 1.4-1.1l3-3 .6-.6 1.8-1.8c.5-.5.7-1.1.7-1.8 0-.6-.3-1.2-.7-1.7"/></svg>
